picto/car-train-right-framed.svg

<svg class="color-immutable" width="30" height="30" viewBox="0 0 30 30" fill="none" xmlns="http://www.w3.org/2000/svg"><path d="M30 0H0V30H30V0Z" fill="#2D327D"/><path d="M25.5 3C26.325 3 27 3.675 27 4.5V25.5C27 26.325 26.325 27 25.5 27H4.5C3.675 27 3 26.325 3 25.5V4.5C3 3.675 3.675 3 4.5 3H25.5ZM25.5 2.625H4.5C3.46613 2.625 2.625 3.46613 2.625 4.5V25.5C2.625 26.5339 3.46613 27.375 4.5 27.375H25.5C26.5339 27.375 27.375 26.5339 27.375 25.5V4.5C27.375 3.46613 26.5339 2.625 25.5 2.625Z" fill="white"/><path d="M7.29272 16.5106C7.29272 15.5686 8.05727 14.8042 8.99882 14.8042C9.9409 14.8042 10.7051 15.5686 10.7051 16.5106C10.7051 17.4523 9.9409 18.2167 8.99882 18.2167C8.05735 18.2168 7.29272 17.4523 7.29272 16.5106ZM9.93655 16.5106C9.93655 15.9929 9.5167 15.5729 8.9989 15.5729C8.48162 15.5729 8.06177 15.993 8.06177 16.5106C8.06177 17.028 8.48162 17.448 8.9989 17.448C9.5167 17.448 9.93655 17.028 9.93655 16.5106Z" fill="white"/><path d="M21.7488 21.5342C21.7488 20.7581 22.3789 20.128 23.1551 20.128C23.4595 20.128 23.7556 20.2268 23.999 20.4093V22.6591C23.7556 22.8418 23.4595 22.9405 23.1551 22.9405C22.379 22.9405 21.7488 22.3105 21.7488 21.5342Z" fill="white"/><path d="M6.32945 13.1362L8.57997 10.8858C8.79102 10.6747 9.07707 10.5562 9.3755 10.5562H15.8594C16.1578 10.5562 16.4439 10.6747 16.6547 10.8858L19.2685 13.4996L23.6562 13.8636C23.8507 13.8797 24 14.0422 24 14.2373V16.5751C24 16.7821 23.8321 16.9499 23.6249 16.9499H23.2125V16.5187C23.2125 15.2768 22.2045 14.2687 20.9625 14.2687C19.7207 14.2687 18.7125 15.2768 18.7125 16.5187V16.9499H11.2502V16.5187C11.2502 15.2768 10.2423 14.2687 8.99997 14.2687C7.7582 14.2687 6.74997 15.2768 6.74997 16.5187V16.9499H6.37505C6.16805 16.9499 6.00012 16.7821 6.00012 16.5751V13.9318C5.99997 13.6333 6.11832 13.3471 6.32945 13.1362ZM13.0869 13.1818C13.0874 13.3886 13.2551 13.5562 13.462 13.5562H17.7215C17.8458 13.5562 17.9463 13.4555 17.9463 13.3312C17.9463 13.2715 17.9228 13.2143 17.8804 13.1722L16.0869 11.3786C16.0167 11.3082 15.921 11.2687 15.8218 11.2687H13.462C13.2551 11.2687 13.0869 11.4367 13.0869 11.6436V13.1818ZM7.51332 13.5562H11.9979C12.2048 13.5562 12.3728 13.3883 12.3728 13.1813V11.6437C12.3728 11.4368 12.2048 11.2687 11.9979 11.2687H9.413C9.31355 11.2687 9.21822 11.3083 9.14765 11.3787L7.35417 13.1722C7.31202 13.2144 7.28825 13.2716 7.28825 13.3313C7.28825 13.4556 7.38905 13.5562 7.51332 13.5562Z" fill="white"/><path d="M6 18.6H24V19.7626H6V18.6Z" fill="white"/><path d="M6 23.25H24V23.9625H6V23.25Z" fill="white"/><path d="M18.1884 21.5284C18.1884 20.7521 18.8186 20.1221 19.5945 20.1221C20.3709 20.1221 21.0009 20.7521 21.0009 21.5284C21.0009 22.3047 20.3709 22.9346 19.5945 22.9346C18.8186 22.9346 18.1884 22.3047 18.1884 21.5284Z" fill="white"/><path d="M10.9182 21.5284C10.9182 20.7521 11.5479 20.1221 12.3243 20.1221C13.1005 20.1221 13.7307 20.7521 13.7307 21.5284C13.7307 22.3047 13.1005 22.9346 12.3243 22.9346C11.5478 22.9346 10.9182 22.3047 10.9182 21.5284Z" fill="white"/><path d="M7.31116 21.5284C7.31116 20.7521 7.94086 20.1221 8.71733 20.1221C9.49351 20.1221 10.1235 20.7521 10.1235 21.5284C10.1235 22.3047 9.49358 22.9346 8.71733 22.9346C7.94086 22.9346 7.31116 22.3047 7.31116 21.5284Z" fill="white"/><path d="M19.241 16.5106C19.241 15.5686 20.0055 14.8042 20.9473 14.8042C21.8891 14.8042 22.6534 15.5686 22.6534 16.5106C22.6534 17.4523 21.8891 18.2167 20.9473 18.2167C20.0055 18.2168 19.241 17.4523 19.241 16.5106ZM21.8847 16.5106C21.8847 15.9929 21.4649 15.5729 20.9473 15.5729C20.4298 15.5729 20.0099 15.993 20.0099 16.5106C20.0099 17.028 20.4297 17.448 20.9473 17.448C21.4649 17.448 21.8847 17.028 21.8847 16.5106Z" fill="white"/></svg>

<svg class="color-immutable" width="30" height="30" viewBox="0 0 30 30" fill="none" xmlns="http://www.w3.org/2000/svg"><g clip-path="url(#a)"><path d="M30 0H0v30h30V0Z" fill="#2D327D"/><path d="M25.5 3c.825 0 1.5.675 1.5 1.5v21c0 .825-.675 1.5-1.5 1.5h-21c-.825 0-1.5-.675-1.5-1.5v-21C3 3.675 3.675 3 4.5 3h21Zm0-.375h-21A1.877 1.877 0 0 0 2.625 4.5v21c0 1.034.841 1.875 1.875 1.875h21a1.877 1.877 0 0 0 1.875-1.875v-21A1.877 1.877 0 0 0 25.5 2.625Z" fill="#fff"/><path d="M7.293 16.51a1.707 1.707 0 1 1 3.414.002 1.707 1.707 0 0 1-3.414-.001Zm2.644 0a.938.938 0 1 0-1.876 0 .938.938 0 0 0 1.876 0ZM21.749 21.534a1.407 1.407 0 0 1 2.25-1.125v2.25a1.406 1.406 0 0 1-2.25-1.125Z" fill="#fff"/><path d="m6.33 13.136 2.25-2.25c.211-.211.497-.33.796-.33h6.483c.299 0 .585.119.796.33l2.613 2.614 4.388.364a.375.375 0 0 1 .344.373v2.338a.375.375 0 0 1-.375.375h-.413v-.431a2.25 2.25 0 0 0-4.5 0v.43H11.25v-.43a2.25 2.25 0 0 0-4.5 0v.43h-.375A.375.375 0 0 1 6 16.576v-2.643c0-.299.118-.585.33-.796Zm6.757.046c0 .207.168.374.375.374h4.26a.225.225 0 0 0 .158-.384l-1.793-1.793a.375.375 0 0 0-.265-.11h-2.36a.375.375 0 0 0-.375.375v1.538Zm-5.574.374h4.485a.375.375 0 0 0 .375-.375v-1.537a.375.375 0 0 0-.375-.375H9.413c-.1 0-.195.04-.265.11l-1.794 1.793a.225.225 0 0 0 .16.384ZM6 18.6h18v1.163H6V18.6ZM6 23.25h18v.712H6v-.712ZM18.188 21.528a1.407 1.407 0 1 1 2.814.002 1.407 1.407 0 0 1-2.814-.002ZM10.918 21.528a1.407 1.407 0 1 1 2.813 0 1.407 1.407 0 0 1-2.813 0ZM7.311 21.528a1.407 1.407 0 1 1 2.813 0 1.407 1.407 0 0 1-2.813 0Z" fill="#fff"/><path d="M19.241 16.51a1.707 1.707 0 1 1 3.414.002 1.707 1.707 0 0 1-3.414-.001Zm2.644 0a.938.938 0 1 0-1.876 0 .938.938 0 0 0 1.876 0Z" fill="#fff"/></g><defs><clipPath id="a"><path fill="#fff" d="M0 0h30v30H0z"/></clipPath></defs></svg>
